X:1
T:Title
%%score { ( 1 3 5 ) | ( 2 4 ) }
L:1/8
M:3/4
K:Ab
V:1 treble nm="Grand Piano"
V:3 treble 
V:5 treble 
V:2 bass 
V:4 bass 
V:1
 z2 z[Q:1/4=92] c BA | [Ec]2 CA FA | [CE]2 z c B.A | [Ge]4 z2 |[M:3/8] [Ac]2 C | cBA | %6
[M:3/4] [Ec]4 z2 | [CE]3 c Ac | [Ge]4 z2 | [Ec]4 z2 | [Bd]4 z2 | z2 [ce]4 | [Bd]4 z2 | z2 [ce]4 | %14
 [df]4 z2 | [df]2 [ce]2 z2 | [Ge]d [Ec]2 [DB]2 |[M:2/4] [A,CA]4 |[M:1/4] z2 |[M:3/4] d4 z2 | %20
 DD CC ce | e-[Ge-] eB ed |[M:2/4] c4 |[M:1/4] cc |[M:3/4] c4 z2 | B2 A2 z2 | %26
[M:13/16] .A3/2 z/ z/ z/ z/ z/ z/ z/ z/ z |[M:2/4] A4 |] %28
V:2
 z2 z E DC | A,,E, A,C D_C | A,,E, A,[K:treble]E DC/A/ | E,,E, G,[K:treble]G _G=G | %4
[M:3/8][K:bass] A,,E,A, | EDC |[M:3/4] A,,E, A,C D_C | A,,E, A,E CE | %8
 [G,,G,][K:treble][G,C] [G,C][G,CEG] [G,_C=DF][G,CDF] | [C,C]C G,E, C,2 | z B, B,B, B,B, | %11
 z A, [A,CE]A, A,A, | z B, B,B, B,B, | z A, [A,CE]A, A,A, | z F, F,[F,A,D] [F,A,D][F,A,D] | %15
 z F, .[E,A,C]2 [E,A,C][E,A,C] | z F E,,E, G,E, |[M:2/4] A,,4 |[M:1/4][K:treble] Ad | %19
[M:3/4][K:bass] [D,A,][D,A,] z D [D,A,]2 | [A,,A,][A,,A,] [A,,A,][A,,A,] z2 | %21
 [E,B,][E,B,] [E,B,]2 B,E |[M:2/4][K:treble] [A,EA][A,E] [A,E]2 |[M:1/4] z2 | %24
[M:3/4][K:bass] [C,G,][C,G,] G,C =E,2 | [F,CF][F,C] [F,CF][F,C] [D,D][=D,_C] | %26
[M:13/16] [E,C]E,E,E,E,3/2E, |[M:2/4] A,,A,, A,,2 |] %28
V:3
 x6 | x6 | x6 | z2 DB =AB |[M:3/8] x3 | x3 |[M:3/4] z2 CA FA | x6 | z E Ee =dd | x6 | %10
 z [DE] [DE][DEAc] [DEGB][DEBd] | [Ac][CEA] z [CE] [CE][CE] | z [DE] [DE][DEAc] [DEGB][DEBd] | %13
 [Ac][CEA] z [CE] [CE][CE] | z [A,D] [A,D][Ae] [Fd][df] | z [A,D] z [E,A,C] [Ac][Ae] | x6 | %17
[M:2/4] x4 |[M:1/4] x2 |[M:3/4] FF FF [FA][EG] | F2 E2 z2 | .G2 G2 G2 |[M:2/4] z A A2 |[M:1/4] x2 | %24
[M:3/4] =EE z G cB | z F z F [FA][Af] |[M:13/16] e-[CAe-][CAe][CEA][EAc]3/2[DEB] | %27
[M:2/4] [CE][DF] [CE]2 |] %28
V:4
 x6 | x6 | x3[K:treble] x3 | x3[K:treble] x3 |[M:3/8][K:bass] x3 | x3 |[M:3/4] x6 | x6 | %8
 x[K:treble] x5 | x6 | E,6 | A,,6 | E,6 | A,,6 | D,6 | A,,6 | E,2 z2 z2 |[M:2/4] x4 | %18
[M:1/4][K:treble] x2 |[M:3/4][K:bass] z2 [D,A,]2 z2 | x6 | z2 z2 E,2 |[M:2/4][K:treble] x4 | %23
[M:1/4] x2 |[M:3/4][K:bass] z2 C,2 z2 | x6 |[M:13/16] x13/2 |[M:2/4] x4 |] %28
V:5
 x6 | x6 | x6 | x6 |[M:3/8] x3 | x3 |[M:3/4] x6 | x6 | x6 | x6 | x6 | x6 | x6 | x6 | x6 | x6 | x6 | %17
[M:2/4] x4 |[M:1/4] x2 |[M:3/4] x6 | x6 | x6 |[M:2/4] x4 |[M:1/4] x2 |[M:3/4] z2 =E2 [CG]2 | x6 | %26
[M:13/16] x13/2 |[M:2/4] x4 |] %28

